!! 00000] TT[00
!! NN
!!!OTL: Hese de xiongying
!!!ARE: Neimeng Hulunbeir (i.d.N„he von Heilongjiang
!! Ethnic Group: Menggu
!! IV, 308
!!!SCT: C0416
!!!YEM: Copyright 1995, estate of Helmut Schaffrath.
**kern
*ICvox
*Ivox
!! Mixed meters:  3/4; 2/4; 4/4
*M2/4
*k[]
*C:
{8.cc
16dd
8dd
4dd
16cc
16dd
=1
8ee
8aa
2ee
=2
8ee
8aa
8ee
8dd}
=3
{4.cc
8dd
8dd
24ee
24gg
24ee
=4
*M3/4
2.dd
=5
*M4/4
8dd
8cc
8a
8g
2a}
=6
{8.a
16dd
8cc
4dd
16dd
16gg
8dd
8cc
=7
*M3/4
8a
4a
8dd
8a
8g
=8
2.e}
=9
{4.e
8g
8a
8cc
=10
2dd
8dd
8cc}
=11
{8c
16c
16d
8e
4.g
=12
8a
8e
2d}
==
!!!AGN: Muge. Rensheng zheli
!! typisch fuer den Westen von Heilongjiang. Stil aehnlich wie in
!!    der aeusseren Neimeng
!!    Mehrere Verzierungen.
!!!ONB: ESAC (Essen Associative Code) Database: CHINA
!!!AMT: irregular
!!!AIN: vox
!!!EED: Helmut Schaffrath
!!!EEV: 1.0
*-
